public/visit-mouse.svg

<svg width="77" height="27" viewBox="0 0 77 27" fill="none" xmlns="http://www.w3.org/2000/svg">
<rect width="77" height="27" rx="13.5" fill="#DFE225"/>
<path d="M20.512 19L16.448 7.8H17.872L21.344 17.36L24.824 7.8H26.24L22.176 19H20.512ZM27.0694 11H28.4134V19H27.0694V11ZM27.7574 9.696C27.544 9.696 27.3654 9.62667 27.2214 9.488C27.0774 9.34933 27.0054 9.176 27.0054 8.968C27.0054 8.76 27.0774 8.58667 27.2214 8.448C27.3654 8.30933 27.5414 8.24 27.7494 8.24C27.9574 8.24 28.1334 8.30933 28.2774 8.448C28.4214 8.58667 28.4934 8.76 28.4934 8.968C28.4934 9.176 28.4214 9.34933 28.2774 9.488C28.1387 9.62667 27.9654 9.696 27.7574 9.696ZM32.6969 19.152C32.2649 19.136 31.8435 19.056 31.4329 18.912C31.0275 18.7627 30.6702 18.5627 30.3609 18.312C30.0569 18.056 29.8355 17.7627 29.6969 17.432L30.8489 16.936C30.9289 17.1173 31.0729 17.288 31.2809 17.448C31.4889 17.608 31.7289 17.736 32.0009 17.832C32.2729 17.928 32.5475 17.976 32.8249 17.976C33.1182 17.976 33.3929 17.9307 33.6489 17.84C33.9049 17.7493 34.1129 17.616 34.2729 17.44C34.4382 17.2587 34.5209 17.0427 34.5209 16.792C34.5209 16.5253 34.4302 16.3173 34.2489 16.168C34.0729 16.0133 33.8489 15.8933 33.5769 15.808C33.3102 15.7173 33.0382 15.632 32.7609 15.552C32.2115 15.4133 31.7209 15.248 31.2889 15.056C30.8569 14.8587 30.5155 14.6107 30.2649 14.312C30.0195 14.008 29.8969 13.6213 29.8969 13.152C29.8969 12.656 30.0329 12.2267 30.3049 11.864C30.5822 11.5013 30.9449 11.2213 31.3929 11.024C31.8409 10.8267 32.3209 10.728 32.8329 10.728C33.4782 10.728 34.0675 10.8667 34.6009 11.144C35.1342 11.4213 35.5315 11.7973 35.7929 12.272L34.7129 12.904C34.6222 12.712 34.4835 12.544 34.2969 12.4C34.1102 12.2507 33.8969 12.1333 33.6569 12.048C33.4169 11.9627 33.1715 11.9173 32.9209 11.912C32.6115 11.9013 32.3209 11.9413 32.0489 12.032C31.7822 12.1227 31.5662 12.2613 31.4009 12.448C31.2409 12.6293 31.1609 12.856 31.1609 13.128C31.1609 13.3947 31.2462 13.5973 31.4169 13.736C31.5929 13.8747 31.8195 13.9867 32.0969 14.072C32.3795 14.152 32.6862 14.2453 33.0169 14.352C33.5022 14.5067 33.9555 14.6853 34.3769 14.888C34.7982 15.0907 35.1369 15.344 35.3929 15.648C35.6542 15.952 35.7822 16.328 35.7769 16.776C35.7769 17.2667 35.6302 17.696 35.3369 18.064C35.0435 18.4267 34.6622 18.704 34.1929 18.896C33.7289 19.088 33.2302 19.1733 32.6969 19.152ZM37.0381 11H38.3821V19H37.0381V11ZM37.7261 9.696C37.5128 9.696 37.3341 9.62667 37.1901 9.488C37.0461 9.34933 36.9741 9.176 36.9741 8.968C36.9741 8.76 37.0461 8.58667 37.1901 8.448C37.3341 8.30933 37.5101 8.24 37.7181 8.24C37.9261 8.24 38.1021 8.30933 38.2461 8.448C38.3901 8.58667 38.4621 8.76 38.4621 8.968C38.4621 9.176 38.3901 9.34933 38.2461 9.488C38.1075 9.62667 37.9341 9.696 37.7261 9.696ZM44.4478 12.344H42.6318L42.6238 19H41.2798L41.2878 12.344H39.9118V11H41.2878L41.2798 8.488H42.6238L42.6318 11H44.4478V12.344Z" fill="black"/>
<path d="M53 18L63 8M63 8V17.6M63 8H53.4" stroke="black" stroke-width="1.5" stroke-linecap="round" stroke-linejoin="round"/>
</svg>

<svg width="77" height="27" viewBox="0 0 77 27" fill="none" xmlns="http://www.w3.org/2000/svg"><rect width="77" height="27" rx="13.5" fill="#DFE225"/><path d="M20.512 19 16.448 7.8h1.424l3.472 9.56 3.48-9.56h1.416L22.176 19zm6.557-8h1.344v8H27.07zm.688-1.304a.74.74 0 0 1-.536-.208.7.7 0 0 1-.216-.52q0-.312.216-.52a.73.73 0 0 1 .528-.208q.312 0 .528.208a.7.7 0 0 1 .216.52.7.7 0 0 1-.216.52.7.7 0 0 1-.52.208m4.94 9.456a4.3 4.3 0 0 1-1.264-.24 3.7 3.7 0 0 1-1.072-.6 2.3 2.3 0 0 1-.664-.88l1.152-.496q.12.272.432.512t.72.384.824.144q.44 0 .824-.136t.624-.4a.93.93 0 0 0 .248-.648q0-.4-.272-.624a1.8 1.8 0 0 0-.672-.36 18 18 0 0 0-.816-.256 9 9 0 0 1-1.472-.496q-.648-.295-1.024-.744-.368-.455-.368-1.16 0-.744.408-1.288a2.7 2.7 0 0 1 1.088-.84 3.5 3.5 0 0 1 1.44-.296q.968 0 1.768.416t1.192 1.128l-1.08.632a1.4 1.4 0 0 0-.416-.504 2.33 2.33 0 0 0-1.376-.488q-.465-.015-.872.12-.4.136-.648.416a1 1 0 0 0-.24.68q0 .4.256.608.264.208.68.336.424.12.92.28.727.232 1.36.536.632.304 1.016.76.392.456.384 1.128 0 .735-.44 1.288-.44.544-1.144.832a3.5 3.5 0 0 1-1.496.256M37.038 11h1.344v8h-1.344zm.688-1.304a.74.74 0 0 1-.536-.208.7.7 0 0 1-.216-.52q0-.312.216-.52a.73.73 0 0 1 .528-.208q.312 0 .528.208a.7.7 0 0 1 .216.52.7.7 0 0 1-.216.52.7.7 0 0 1-.52.208m6.722 2.648h-1.816L42.624 19H41.28l.008-6.656h-1.376V11h1.376l-.008-2.512h1.344L42.632 11h1.816z" fill="#000"/><path d="M53 18 63 8m0 0v9.6M63 8h-9.6" stroke="#000" stroke-width="1.5" stroke-linecap="round" stroke-linejoin="round"/></svg>
